static/img/svg/shuffle.svg

<svg xmlns="http://www.w3.org/2000/svg" width="24" height="24" viewBox="0 0 24 24"><path d="M18 6h-2.414l-3.293 3.293 1.414 1.414L16.414 8H18v3l4-3.937L18 3zM18 17h-1.586l-11-11H2v2h2.586l4.5 4.5-4.5 4.5H2v2h3.414l5.086-5.086L15.586 19H18v3l4-4-4-4z"/></svg>

<svg xmlns="http://www.w3.org/2000/svg" width="24" height="24" viewBox="0 0 24 24"><path d="M18 6L15.586 6 12.293 9.293 13.707 10.707 16.414 8 18 8 18 11 22 7.063 18 3zM18 17L16.414 17 5.414 6 2 6 2 8 4.586 8 15.586 19 18 19 18 22 22 18 18 14zM8.707 15.707L7.293 14.293 4.586 17 2 17 2 19 5.414 19z"/></svg>
